X: 21581
T: Kilkenny Races
R: hornpipe
M: 4/4
K: Gmajor
(3DEF|G2GA GABc|d2 (3efg d2Bd|c2Ac B2GB|ABAG FE (3DEF|
G2GA GABc|d2 (3efg d2gf|(3ece (3gag (3fdf (3aba|g2gf g2:|
(3abc'|d'2a2 b2g2|abag fdgf|efed (3dfa ge|dedc B2G2|
[1 d'2a2 b2g2|abag fdgf|(3ece (3gag (3fdf (3aba|g2gf g2:|
[2 G2GA GABc|d2 (3efg d2gf|(3ece (3gag (3fdf (3aba|g2gf g2||
dc|B2G2 d2G2|(3efg d^c d2A=c|BAGB dBcB|A2AG A2dc|
B2G2 d2G2|(3efg d^c d2gf|(3ece (3gag (3fdf (3aba|g2gf g2:|

